X: 85
T: No_175_Steal_Partner_Dance_Song_(d).krn
N: Derived from No_175_Steal_Partner_Dance_Song_(d).krn
%%abc-version 2.0
%%abcx-abcm2ps-target-version 5.9.1 (29 Sep 2008)
%%abc-creator hum2abc beta
%%abcx-conversion-date 2019/03/15 08:38:45
%%humdrum-veritas 1669357120
%%humdrum-veritas-data 2069082040
%%linebreak <none>
%%barnumbers 0
L: 1/8
M: 2/4
K: G clef=bass
[K:clef=bass][M:2/4]z3/ G,/ G,3/G,/ | 
D2D2 ||  
[M:3/4]B,z2z/ G,/ G,3/G,/ ||  
[M:2/4]D2D2 ||  
[M:3/4]B,3/C/ DB,/B,/B,2 ||  
[M:2/4]G,G, G,/ z G,/ | 
(3B,G,B,B,2 | 
G,G,G,2 | 
G,/D,/D,/ z/z2 ||  
[M:3/4]G,G,G,2G,3/B,/ ||  
[M:2/4](3B,G,G,B,2 ||  
[M:3/4]G,G,G,2(3:2:4G,D,G,/ z/ ||  
[M:2/4]G,2G,2 | 
G,3/G,/ G,3/G,/ | 
D2z2 |]  



